resources/svg/wan-o.svg

<svg xmlns="http://www.w3.org/2000/svg" viewBox="0 0 15 15" fill="none"><path d="M3.5 14.5L3.0111 14.6048C3.05879 14.8273 3.25077 14.9896 3.47816 14.9995C3.70554 15.0095 3.91095 14.8646 3.97789 14.647L3.5 14.5ZM7.5 1.5L7.97789 1.35296C7.91334 1.14316 7.7195 1 7.5 1C7.2805 1 7.08666 1.14316 7.02211 1.35296L7.5 1.5ZM11.5 14.5L11.0221 14.647C11.089 14.8646 11.2945 15.0095 11.5218 14.9995C11.7492 14.9896 11.9412 14.8273 11.9889 14.6048L11.5 14.5ZM0.0110988 0.604765L3.0111 14.6048L3.9889 14.3952L0.988901 0.395235L0.0110988 0.604765ZM3.97789 14.647L7.97789 1.64704L7.02211 1.35296L3.02211 14.353L3.97789 14.647ZM7.02211 1.64704L11.0221 14.647L11.9779 14.353L7.97789 1.35296L7.02211 1.64704ZM11.9889 14.6048L14.9889 0.604765L14.0111 0.395235L11.0111 14.3952L11.9889 14.6048ZM0 6H15V5H0V6ZM0 10H15V9H0V10Z" fill="black"/></svg>

<svg xmlns="http://www.w3.org/2000/svg" viewBox="0 0 15 15" fill="none"><path d="M3.5 14.5l-.489.105a.5.5 0 00.967.042L3.5 14.5zm4-13l.478-.147a.5.5 0 00-.956 0L7.5 1.5zm4 13l-.478.147a.5.5 0 00.967-.042L11.5 14.5zM.011.605l3 14 .978-.21-3-14-.978.21zm3.967 14.042l4-13-.956-.294-4 13 .956.294zm3.044-13l4 13 .956-.294-4-13-.956.294zm4.967 12.958l3-14-.978-.21-3 14 .978.21zM0 6h15V5H0v1zm0 4h15V9H0v1z" fill="currentColor"/></svg>
